src/icons/ce-cluster.svg

<svg height="37" viewBox="0 0 38 37" width="38" xmlns="http://www.w3.org/2000/svg"><path d="m107.051196 15.4532911c5.8064 0 10.512911 4.7069333 10.512911 10.5133333s-4.706511 10.5133334-10.512911 10.5133334-10.5133338-4.7069334-10.5133338-10.5133334 4.7069338-10.5133333 10.5133338-10.5133333zm-19.2956404 5.4045711c3.7307555 0 6.7555555 3.0243778 6.7555555 6.7555556 0 3.7307555-3.0248 6.7555555-6.7555555 6.7555555-3.7307556 0-6.7555556-3.0248-6.7555556-6.7555555 0-3.7311778 3.0248-6.7555556 6.7555556-6.7555556zm11.2734177-14.73572442c2.6583107 0 4.8129107 2.15502222 4.8129107 4.81333332s-2.1546 4.8133333-4.8129107 4.8133333c-2.6583111 0-4.8133333-2.1550222-4.8133333-4.8133333s2.1550222-4.81333332 4.8133333-4.81333332zm13.6376937-4.85555556c3.497689 0 6.333333 2.83564445 6.333333 6.33333334 0 3.49811114-2.835644 6.33333334-6.333333 6.33333334s-6.333334-2.8352222-6.333334-6.33333334c0-3.49768889 2.835645-6.33333334 6.333334-6.33333334zm-20.3932492-.84444444c1.7256222 0 3.1244444 1.39882222 3.1244444 3.12444444s-1.3988222 3.12444445-3.1244444 3.12444445-3.1244445-1.39882223-3.1244445-3.12444445 1.3988223-3.12444444 3.1244445-3.12444444z" fill="#e4e7eb" fill-rule="evenodd" transform="translate(-81)"/></svg>

<?xml version="1.0" encoding="UTF-8"?>
<svg width="38px" height="37px" viewBox="0 0 38 37" version="1.1" xmlns="http://www.w3.org/2000/svg" xmlns:xlink="http://www.w3.org/1999/xlink">
    <!-- Generator: Sketch 62 (91390) - https://sketch.com -->
    <title>Cluster</title>
    <desc>Created with Sketch.</desc>
    <g id="GA-Use-cases" stroke="none" stroke-width="1" fill="none" fill-rule="evenodd">
        <g id="Overview---Full-Data-(GA)" transform="translate(-739.000000, -758.000000)" fill="#E4E7EB">
            <g id="Cluster" transform="translate(524.000000, 620.000000)">
                <g id="Group-15" transform="translate(134.000000, 138.000000)">
                    <g id="Group-18">
                        <path d="M107.051196,15.4532911 C112.857596,15.4532911 117.564107,20.1602244 117.564107,25.9666244 C117.564107,31.7730244 112.857596,36.4799578 107.051196,36.4799578 C101.244796,36.4799578 96.5378622,31.7730244 96.5378622,25.9666244 C96.5378622,20.1602244 101.244796,15.4532911 107.051196,15.4532911 Z M87.7555556,20.8578622 C91.4863111,20.8578622 94.5111111,23.88224 94.5111111,27.6134178 C94.5111111,31.3441733 91.4863111,34.3689733 87.7555556,34.3689733 C84.0248,34.3689733 81,31.3441733 81,27.6134178 C81,23.88224 84.0248,20.8578622 87.7555556,20.8578622 Z M99.0289733,6.12213778 C101.687284,6.12213778 103.841884,8.27716 103.841884,10.9354711 C103.841884,13.5937822 101.687284,15.7488044 99.0289733,15.7488044 C96.3706622,15.7488044 94.21564,13.5937822 94.21564,10.9354711 C94.21564,8.27716 96.3706622,6.12213778 99.0289733,6.12213778 Z M112.666667,1.26658222 C116.164356,1.26658222 119,4.10222667 119,7.59991556 C119,11.0980267 116.164356,13.9332489 112.666667,13.9332489 C109.168978,13.9332489 106.333333,11.0980267 106.333333,7.59991556 C106.333333,4.10222667 109.168978,1.26658222 112.666667,1.26658222 Z M92.2734178,0.422137778 C93.99904,0.422137778 95.3978622,1.82096 95.3978622,3.54658222 C95.3978622,5.27220444 93.99904,6.67102667 92.2734178,6.67102667 C90.5477956,6.67102667 89.1489733,5.27220444 89.1489733,3.54658222 C89.1489733,1.82096 90.5477956,0.422137778 92.2734178,0.422137778 Z" id="Cluster"></path>
                    </g>
                </g>
            </g>
        </g>
    </g>
</svg>
